Icons/com_bytestorm_artflow_Editor.svg

<svg viewBox="0 0 48 48" xmlns:xlink="http://www.w3.org/1999/xlink">
 <defs>
  <linearGradient id="0">
   <stop stop-opacity="0"/>
   <stop offset="1"/>
  </linearGradient>
  <linearGradient xlink:href="#0" id="1" gradientUnits="userSpaceOnUse" gradientTransform="translate(4e-7,-48)" y1="47" x2="0" y2="1"/>
  <clipPath id="2">
   <g transform="translate(0,-1004.3622)">
    <rect rx="4" y="1005.36" x="1" height="46" width="46" fill="#1890d0"/>
   </g>
  </clipPath>
  <clipPath id="3">
   <g transform="translate(0,-1004.3622)">
    <rect rx="4" y="1005.36" x="1" height="46" width="46" fill="#1890d0"/>
   </g>
  </clipPath>
 </defs>
 <g>
  <g transform="translate(0,-1004.3622)">
   <path d="m 5,1006.3622 c -2.216,0 -4,1.784 -4,4 l 0,37.25 c 0,2.216 1.784,4 4,4 l 38,0 c 2.216,0 4,-1.784 4,-4 l 0,-37.25 c 0,-2.216 -1.784,-4 -4,-4 l -38,0 z m -4,41.5 0,0.5 c 0,2.216 1.784,4 4,4 l 38,0 c 2.216,0 4,-1.784 4,-4 l 0,-0.5 c 0,2.216 -1.784,4 -4,4 l -38,0 c -2.216,0 -4,-1.784 -4,-4 z" opacity="0.02"/>
   <path d="m 1,1047.6122 0,0.25 c 0,2.216 1.784,4 4,4 l 38,0 c 2.216,0 4,-1.784 4,-4 l 0,-0.25 c 0,2.216 -1.784,4 -4,4 l -38,0 c -2.216,0 -4,-1.784 -4,-4 z" opacity="0.05"/>
   <rect width="46" height="46" x="1" y="1005.61" rx="4" opacity="0.1"/>
  </g>
 </g>
 <g>
  <g transform="translate(0,-1004.3622)">
   <rect rx="4" y="1005.36" x="1" height="46" width="46" fill="#0db1ef"/>
  </g>
 </g>
 <g>
  <rect transform="scale(1,-1)" width="46" height="46" x="1" y="-46.998" rx="4" opacity="0.1" fill="url(#1)"/>
 </g>
 <g>
  <g clip-path="url(#2)">
   <g opacity="0.1">
    <g>
     <path d="M 30.03125 13.625 C 29.316406 13.691406 28.582031 13.90625 27.90625 14.25 C 26.1875 15.125 25.003906 17.050781 25 18.90625 C 25 19.492188 24.976562 19.519531 25.78125 20.09375 C 26.644531 20.710938 27.664062 21.722656 27.96875 22.3125 C 28.210938 22.777344 28.390625 22.753906 28.46875 22.25 C 28.503906 22.023438 28.550781 21.421875 28.59375 20.9375 C 28.777344 18.902344 29.484375 16.96875 31.5625 16.4375 C 32.789062 16.125 34.578125 16.875 35.53125 17.625 C 35.972656 17.972656 36.128906 17.785156 35.90625 17.15625 C 35.398438 15.71875 33.988281 14.460938 32.46875 13.9375 C 31.886719 13.738281 31.324219 13.644531 30.75 13.625 C 30.511719 13.617188 30.269531 13.601562 30.03125 13.625 Z M 20.21875 18.90625 C 17.4375 18.796875 14.660156 20.261719 13.21875 22.65625 C 12.503906 23.703125 12.03125 24.9375 12.03125 26.21875 C 11.9375 27.535156 12.101562 28.890625 12.8125 30.03125 C 14.242188 32.492188 16.984375 34.347656 19.90625 34.15625 C 21.675781 34.070312 23.3125 32.875 23.875 31.1875 C 24.015625 30.65625 24.527344 29.695312 23.9375 29.40625 C 23.269531 29.960938 22.546875 30.488281 21.6875 30.71875 C 19.425781 31.523438 16.554688 30.824219 15.5 28.71875 C 14.792969 27.308594 15.238281 24.921875 16.4375 24 C 18.226562 21.710938 22.183594 21.738281 24 24 C 24.566406 24.523438 24.65625 25.324219 25 26 C 25.050781 28.621094 24.972656 31.425781 25 32 C 25 32.945312 24.960938 34.375 25.90625 34.375 L 26.84375 34.375 C 27.789062 34.375 28 32.945312 28 32 L 28 26 C 27.902344 24.148438 27.085938 22.578125 25.75 21.34375 C 25.007812 20.589844 24.246094 19.792969 23.1875 19.5 C 22.238281 19.148438 21.230469 18.929688 20.21875 18.90625 Z M 32.5625 25.1875 C 31.96875 25.175781 30.910156 25.402344 29.96875 25.71875 L 29.0625 26 L 28.96875 27 C 28.917969 27.554688 28.902344 28.148438 28.9375 28.3125 C 29 28.59375 29.066406 28.585938 29.75 27.9375 C 30.144531 27.5625 30.71875 27.085938 31.03125 26.875 C 31.34375 26.664062 31.972656 26.3125 32.40625 26.09375 C 33.242188 25.671875 33.285156 25.546875 32.96875 25.28125 C 32.902344 25.226562 32.761719 25.191406 32.5625 25.1875 Z M 32.5625 25.1875 "/>
    </g>
   </g>
  </g>
 </g>
 <g>
  <g clip-path="url(#3)">
   <g transform="translate(0,-1)">
    <g>
     <path d="M 30.03125 13.625 C 29.316406 13.691406 28.582031 13.90625 27.90625 14.25 C 26.1875 15.125 25.003906 17.050781 25 18.90625 C 25 19.492188 24.976562 19.519531 25.78125 20.09375 C 26.644531 20.710938 27.664062 21.722656 27.96875 22.3125 C 28.210938 22.777344 28.390625 22.753906 28.46875 22.25 C 28.503906 22.023438 28.550781 21.421875 28.59375 20.9375 C 28.777344 18.902344 29.484375 16.96875 31.5625 16.4375 C 32.789062 16.125 34.578125 16.875 35.53125 17.625 C 35.972656 17.972656 36.128906 17.785156 35.90625 17.15625 C 35.398438 15.71875 33.988281 14.460938 32.46875 13.9375 C 31.886719 13.738281 31.324219 13.644531 30.75 13.625 C 30.511719 13.617188 30.269531 13.601562 30.03125 13.625 Z M 20.21875 18.90625 C 17.4375 18.796875 14.660156 20.261719 13.21875 22.65625 C 12.503906 23.703125 12.03125 24.9375 12.03125 26.21875 C 11.9375 27.535156 12.101562 28.890625 12.8125 30.03125 C 14.242188 32.492188 16.984375 34.347656 19.90625 34.15625 C 21.675781 34.070312 23.3125 32.875 23.875 31.1875 C 24.015625 30.65625 24.527344 29.695312 23.9375 29.40625 C 23.269531 29.960938 22.546875 30.488281 21.6875 30.71875 C 19.425781 31.523438 16.554688 30.824219 15.5 28.71875 C 14.792969 27.308594 15.238281 24.921875 16.4375 24 C 18.226562 21.710938 22.183594 21.738281 24 24 C 24.566406 24.523438 24.65625 25.324219 25 26 C 25.050781 28.621094 24.972656 31.425781 25 32 C 25 32.945312 24.960938 34.375 25.90625 34.375 L 26.84375 34.375 C 27.789062 34.375 28 32.945312 28 32 L 28 26 C 27.902344 24.148438 27.085938 22.578125 25.75 21.34375 C 25.007812 20.589844 24.246094 19.792969 23.1875 19.5 C 22.238281 19.148438 21.230469 18.929688 20.21875 18.90625 Z M 32.5625 25.1875 C 31.96875 25.175781 30.910156 25.402344 29.96875 25.71875 L 29.0625 26 L 28.96875 27 C 28.917969 27.554688 28.902344 28.148438 28.9375 28.3125 C 29 28.59375 29.066406 28.585938 29.75 27.9375 C 30.144531 27.5625 30.71875 27.085938 31.03125 26.875 C 31.34375 26.664062 31.972656 26.3125 32.40625 26.09375 C 33.242188 25.671875 33.285156 25.546875 32.96875 25.28125 C 32.902344 25.226562 32.761719 25.191406 32.5625 25.1875 Z M 32.5625 25.1875 " fill="#f9f9f9"/>
    </g>
   </g>
  </g>
 </g>
 <g>
  <g transform="translate(0,-1004.3622)">
   <path d="m 1,1043.3622 0,4 c 0,2.216 1.784,4 4,4 l 38,0 c 2.216,0 4,-1.784 4,-4 l 0,-4 c 0,2.216 -1.784,4 -4,4 l -38,0 c -2.216,0 -4,-1.784 -4,-4 z" opacity="0.1"/>
  </g>
 </g>
</svg>

<svg viewBox="0 0 48 48"><defs><linearGradient id="linearGradient3764" x1="1" x2="47" gradientUnits="userSpaceOnUse" gradientTransform="translate(-48.000001,0.00221467)"><stop stop-color="#0ca4dc" stop-opacity="1"/><stop offset="1" stop-color="#0db1ef" stop-opacity="1"/></linearGradient><clipPath id="clipPath-606963135"><g transform="translate(0,-1004.3622)"><rect rx="4" y="1005.36" x="1" height="46" width="46" fill="#1890d0"/></g></clipPath><clipPath id="clipPath-620279312"><g transform="translate(0,-1004.3622)"><rect rx="4" y="1005.36" x="1" height="46" width="46" fill="#1890d0"/></g></clipPath></defs><g><path d="m 1 43 l 0 0.25 c 0 2.216 1.784 4 4 4 l 38 0 c 2.216 0 4 -1.784 4 -4 l 0 -0.25 c 0 2.216 -1.784 4 -4 4 l -38 0 c -2.216 0 -4 -1.784 -4 -4 z m 0 0.5 l 0 0.5 c 0 2.216 1.784 4 4 4 l 38 0 c 2.216 0 4 -1.784 4 -4 l 0 -0.5 c 0 2.216 -1.784 4 -4 4 l -38 0 c -2.216 0 -4 -1.784 -4 -4 z" opacity="0.02"/><path d="m 1 43.25 l 0 0.25 c 0 2.216 1.784 4 4 4 l 38 0 c 2.216 0 4 -1.784 4 -4 l 0 -0.25 c 0 2.216 -1.784 4 -4 4 l -38 0 c -2.216 0 -4 -1.784 -4 -4 z" opacity="0.05"/><path d="m 1 43 l 0 0.25 c 0 2.216 1.784 4 4 4 l 38 0 c 2.216 0 4 -1.784 4 -4 l 0 -0.25 c 0 2.216 -1.784 4 -4 4 l -38 0 c -2.216 0 -4 -1.784 -4 -4 z" opacity="0.1"/></g><g><rect width="46" height="46" x="-47" y="1" rx="4" transform="matrix(0,-1,1,0,0,0)" fill="url(#linearGradient3764)" fill-opacity="1"/></g><g><g clip-path="url(#clipPath-606963135)"><g opacity="0.1"><!-- color: #0db1ef --><g><path d="m 30.03 13.625 c -0.715 0.066 -1.449 0.281 -2.125 0.625 c -1.719 0.875 -2.902 2.801 -2.906 4.656 c 0 0.586 -0.023 0.613 0.781 1.188 c 0.863 0.617 1.883 1.629 2.188 2.219 c 0.242 0.465 0.422 0.441 0.5 -0.063 c 0.035 -0.227 0.082 -0.828 0.125 -1.313 c 0.184 -2.035 0.891 -3.969 2.969 -4.5 c 1.227 -0.313 3.02 0.438 3.969 1.188 c 0.441 0.348 0.598 0.16 0.375 -0.469 c -0.508 -1.438 -1.918 -2.695 -3.438 -3.219 c -0.582 -0.199 -1.145 -0.293 -1.719 -0.313 c -0.238 -0.008 -0.48 -0.023 -0.719 0 m -9.813 5.281 c -2.781 -0.109 -5.559 1.355 -7 3.75 c -0.715 1.047 -1.188 2.281 -1.188 3.563 c -0.094 1.316 0.07 2.672 0.781 3.813 c 1.43 2.461 4.172 4.316 7.094 4.125 c 1.77 -0.086 3.406 -1.281 3.969 -2.969 c 0.141 -0.531 0.652 -1.492 0.063 -1.781 c -0.668 0.555 -1.391 1.082 -2.25 1.313 c -2.262 0.805 -5.133 0.105 -6.188 -2 c -0.707 -1.41 -0.262 -3.797 0.938 -4.719 c 1.789 -2.289 5.746 -2.262 7.563 0 c 0.566 0.523 0.656 1.324 1 2 c 0.051 2.621 -0.027 5.426 0 6 c 0 0.945 -0.039 2.375 0.906 2.375 l 0.938 0 c 0.945 0 1.156 -1.43 1.156 -2.375 l 0 -6 c -0.098 -1.852 -0.914 -3.422 -2.25 -4.656 c -0.742 -0.754 -1.504 -1.551 -2.563 -1.844 c -0.949 -0.352 -1.957 -0.57 -2.969 -0.594 m 12.344 6.281 c -0.594 -0.012 -1.652 0.215 -2.594 0.531 l -0.906 0.281 l -0.094 1 c -0.051 0.555 -0.066 1.148 -0.031 1.313 c 0.063 0.281 0.129 0.273 0.813 -0.375 c 0.395 -0.375 0.969 -0.852 1.281 -1.063 c 0.313 -0.211 0.941 -0.563 1.375 -0.781 c 0.836 -0.422 0.879 -0.547 0.563 -0.813 c -0.066 -0.055 -0.207 -0.09 -0.406 -0.094 m 0 0" fill="#000"/></g></g></g></g><g><g clip-path="url(#clipPath-620279312)"><g transform="translate(0,-1)"><!-- color: #0db1ef --><g><path d="m 30.03 13.625 c -0.715 0.066 -1.449 0.281 -2.125 0.625 c -1.719 0.875 -2.902 2.801 -2.906 4.656 c 0 0.586 -0.023 0.613 0.781 1.188 c 0.863 0.617 1.883 1.629 2.188 2.219 c 0.242 0.465 0.422 0.441 0.5 -0.063 c 0.035 -0.227 0.082 -0.828 0.125 -1.313 c 0.184 -2.035 0.891 -3.969 2.969 -4.5 c 1.227 -0.313 3.02 0.438 3.969 1.188 c 0.441 0.348 0.598 0.16 0.375 -0.469 c -0.508 -1.438 -1.918 -2.695 -3.438 -3.219 c -0.582 -0.199 -1.145 -0.293 -1.719 -0.313 c -0.238 -0.008 -0.48 -0.023 -0.719 0 m -9.813 5.281 c -2.781 -0.109 -5.559 1.355 -7 3.75 c -0.715 1.047 -1.188 2.281 -1.188 3.563 c -0.094 1.316 0.07 2.672 0.781 3.813 c 1.43 2.461 4.172 4.316 7.094 4.125 c 1.77 -0.086 3.406 -1.281 3.969 -2.969 c 0.141 -0.531 0.652 -1.492 0.063 -1.781 c -0.668 0.555 -1.391 1.082 -2.25 1.313 c -2.262 0.805 -5.133 0.105 -6.188 -2 c -0.707 -1.41 -0.262 -3.797 0.938 -4.719 c 1.789 -2.289 5.746 -2.262 7.563 0 c 0.566 0.523 0.656 1.324 1 2 c 0.051 2.621 -0.027 5.426 0 6 c 0 0.945 -0.039 2.375 0.906 2.375 l 0.938 0 c 0.945 0 1.156 -1.43 1.156 -2.375 l 0 -6 c -0.098 -1.852 -0.914 -3.422 -2.25 -4.656 c -0.742 -0.754 -1.504 -1.551 -2.563 -1.844 c -0.949 -0.352 -1.957 -0.57 -2.969 -0.594 m 12.344 6.281 c -0.594 -0.012 -1.652 0.215 -2.594 0.531 l -0.906 0.281 l -0.094 1 c -0.051 0.555 -0.066 1.148 -0.031 1.313 c 0.063 0.281 0.129 0.273 0.813 -0.375 c 0.395 -0.375 0.969 -0.852 1.281 -1.063 c 0.313 -0.211 0.941 -0.563 1.375 -0.781 c 0.836 -0.422 0.879 -0.547 0.563 -0.813 c -0.066 -0.055 -0.207 -0.09 -0.406 -0.094 m 0 0" fill="#f9f9f9"/></g></g></g></g><g><g transform="translate(0,-1004.3622)"><path d="m 1 1043.36 0 4 c 0 2.216 1.784 4 4 4 l 38 0 c 2.216 0 4 -1.784 4 -4 l 0 -4 c 0 2.216 -1.784 4 -4 4 l -38 0 c -2.216 0 -4 -1.784 -4 -4 z" opacity="0.1"/></g></g></svg>
